X:1
T:The Cod Banging Song
M:2/4
L:1/8
K:G
 D| GG AG| EE E3/2 E/2| AA BA|
M:3/4
 FA D2 z2|
M:2/4
 dd cA| Bd cA| GG EG| A A/2G/2 F E/2E/2| D E/2F/2 G2| E/2E/2 F/2G/2 A2|\
